X:14189
T:Rein Feuer...
R:
O:
B:Frau Nachtigall (Straburg - 1928)
Z:<anamnese@caramail.com> -- http://anamnese.fr.st
N:p.43
M:3/6
L:1/4
Q:1/4=130
K:F
C | FF G/G/ | AAB | c d/c/ B/A/ | (AG) c | d B d/f/ | f/c/ c A/ c/ |
c/B/ AG | (F3/2 A/G/B/ | A3/2 c/B/d/ | c Hf/) z A/ c/ | c/B/ AG | F2 |]
W:
